public/avatar/item2/60.svg

<svg xmlns:xlink="http://www.w3.org/1999/xlink" height="99.2" width="82.2" xmlns="http://www.w3.org/2000/svg"><use height="10.7" transform="translate(34.65 68.75)" width="10.7" xlink:href="#a"/><defs><g id="a" fill-rule="evenodd"><path d="M11.85 22.85q-5.5 2.55-7.45 7.2-.75-1.35-.75-2.7 0-2.2 1.55-3.8Q6.8 22 9 22q1.6 0 2.85.85" fill="#8a2828" transform="translate(-3.65 -22)"/><path d="M11.85 22.85q2.5 1.6 2.5 4.5 0 2.2-1.55 3.8Q11.2 32.7 9 32.7q-2.95 0-4.6-2.65 1.95-4.65 7.45-7.2" fill="#451414" transform="translate(-3.65 -22)"/><path d="M13.45 27.35q0 1.85-1.3 3.15-1.3 1.3-3.15 1.3-1.85 0-3.2-1.3-1.3-1.3-1.3-3.15 0-1.85 1.3-3.2 1.35-1.3 3.2-1.3t3.15 1.3q1.3 1.35 1.3 3.2" fill="#ffd15c" transform="translate(-3.65 -22)"/><path d="M7.35 31.45q3-2.5 3.6-4.25l.5-3.6L13 25.15q1.25 2-.05 4.35-2.05 3.7-5.6 1.95" fill="#db9833" transform="translate(-3.65 -22)"/><path d="M8.35 22.85q1.05-.1 1.6.45.5.5.2 1.15l-1.75 2.2Q6.8 28.2 5.7 28.7q-1.1.55-1.2-1.1-.1-1.5.65-2.75.95-1.65 3.2-2" fill="#fff0c9" transform="translate(-3.65 -22)"/><path d="M8.25 23.65q.45.6-.85 2.1-1.25 1.5-1.95 1-.65-.5.9-2.05 1.55-1.55 1.9-1.05" fill="#fff" transform="translate(-3.65 -22)"/><path d="M9.1 24.6v.1l1.35 2.75 1.35-2.25-.65 4.7-2.05.25L7 29.9l-.65-4.7 1.35 2.25 1.35-2.75v-.05l.05-.05" fill="#6e2020" transform="translate(-3.65 -22)"/><path d="M9.75 24.3q0 .7-.7.7t-.7-.7q0-.7.7-.7t.7.7" fill="#6e2020" transform="translate(-3.65 -22)"/><path d="M12.4 25.25q0 .6-.6.6-.55 0-.55-.6 0-.55.55-.55.6 0 .6.55" fill="#450606" transform="translate(-3.65 -22)"/><path d="M7 25.35q0 .55-.55.55t-.55-.55q0-.6.55-.6t.55.6" fill="#c71616" transform="translate(-3.65 -22)"/><path d="m8.45 30.1.85-2.2.35-2.1.8 1.65 1.05-1.75h.3l-.65 4.2-1.3.2h-1.4" fill="#450606" transform="translate(-3.65 -22)"/><path d="M7.65 30.05h-.1L7 29.9l-.6-4.3.05-.05h.15l1.1 1.9.95-1.3-1 3.9" fill="#c71616" transform="translate(-3.65 -22)"/></g></defs></svg>

<?xml version="1.0" encoding="UTF-8" standalone="no"?>
<svg xmlns:xlink="http://www.w3.org/1999/xlink" height="99.2px" width="82.2px" xmlns="http://www.w3.org/2000/svg">
  <g transform="matrix(1.0, 0.0, 0.0, 1.0, 31.0, 46.75)">
    <use height="10.7" transform="matrix(1.0, 0.0, 0.0, 1.0, 3.65, 22.0)" width="10.7" xlink:href="#shape0"/>
  </g>
  <defs>
    <g id="shape0" transform="matrix(1.0, 0.0, 0.0, 1.0, -3.65, -22.0)">
      <path d="M11.85 22.85 Q6.35 25.4 4.4 30.05 3.65 28.7 3.65 27.35 3.65 25.15 5.2 23.55 6.8 22.0 9.0 22.0 10.6 22.0 11.85 22.85" fill="#8a2828" fill-rule="evenodd" stroke="none"/>
      <path d="M11.85 22.85 Q14.35 24.45 14.35 27.35 14.35 29.55 12.8 31.15 11.2 32.7 9.0 32.7 6.05 32.7 4.4 30.05 6.35 25.4 11.85 22.85" fill="#451414" fill-rule="evenodd" stroke="none"/>
      <path d="M13.45 27.35 Q13.45 29.2 12.15 30.5 10.85 31.8 9.0 31.8 7.15 31.8 5.8 30.5 4.5 29.2 4.5 27.35 4.5 25.5 5.8 24.15 7.15 22.85 9.0 22.85 10.85 22.85 12.15 24.15 13.45 25.5 13.45 27.35" fill="#ffd15c" fill-rule="evenodd" stroke="none"/>
      <path d="M7.35 31.45 Q10.35 28.95 10.95 27.2 L11.45 23.6 13.0 25.15 Q14.25 27.15 12.95 29.5 10.9 33.2 7.35 31.45" fill="#db9833" fill-rule="evenodd" stroke="none"/>
      <path d="M8.35 22.85 Q9.4 22.75 9.95 23.3 10.45 23.8 10.15 24.45 L8.4 26.65 Q6.8 28.2 5.7 28.7 4.6 29.25 4.5 27.6 4.4 26.1 5.15 24.85 6.1 23.2 8.35 22.85" fill="#fff0c9" fill-rule="evenodd" stroke="none"/>
      <path d="M8.25 23.65 Q8.7 24.25 7.4 25.75 6.15 27.25 5.45 26.75 4.8 26.25 6.35 24.7 7.9 23.15 8.25 23.65" fill="#ffffff" fill-rule="evenodd" stroke="none"/>
      <path d="M9.1 24.6 L9.1 24.7 10.45 27.45 11.8 25.2 11.15 29.9 9.1 30.15 7.0 29.9 6.35 25.2 7.7 27.45 9.05 24.7 9.05 24.65 9.1 24.6" fill="#6e2020" fill-rule="evenodd" stroke="none"/>
      <path d="M9.75 24.3 Q9.75 25.0 9.05 25.0 8.35 25.0 8.35 24.3 8.35 23.6 9.05 23.6 9.75 23.6 9.75 24.3" fill="#6e2020" fill-rule="evenodd" stroke="none"/>
      <path d="M12.4 25.25 Q12.4 25.85 11.8 25.85 11.25 25.85 11.25 25.25 11.25 24.7 11.8 24.7 12.4 24.7 12.4 25.25" fill="#450606" fill-rule="evenodd" stroke="none"/>
      <path d="M7.0 25.35 Q7.0 25.9 6.45 25.9 5.9 25.9 5.9 25.35 5.9 24.75 6.45 24.75 7.0 24.75 7.0 25.35" fill="#c71616" fill-rule="evenodd" stroke="none"/>
      <path d="M8.45 30.1 L9.3 27.9 9.65 25.8 10.45 27.45 11.5 25.7 11.8 25.7 11.15 29.9 9.85 30.1 8.45 30.1" fill="#450606" fill-rule="evenodd" stroke="none"/>
      <path d="M7.65 30.05 L7.55 30.05 7.0 29.9 6.4 25.6 6.45 25.55 6.6 25.55 7.7 27.45 8.65 26.15 7.65 30.05" fill="#c71616" fill-rule="evenodd" stroke="none"/>
    </g>
  </defs>
</svg>
